X: 30258
T: Old Lancashire Hornpipe, The
R: three-two
M: 3/2
K: Dmajor
|:B2 A2 G2|F3 E D2|f2 e2 d2|e2 E4|
B2 A2 G2|F3 E D2|f2 e2 dc|d2 D4:|
|:B2 A2 G2|F2 A2 G2|B2 A2 cd|e2 E4|
B2 A2 G2|F2 A2 G2|B2 A2 Bc|d2 D4:|
|:f2 g2 a2|f3 e d2|f2 e2 d2|c2 e4|
f2 g2 a2|f3 e d2|f2 e2 dc|d2 D4:|

